!!!OTL: 1225. Schlesische Sommerliedchen. / [Am Sonntag Laetare.]
!!!ARE: Europa, Mitteleuropa, Deutschland, Schlesien, Glogau
!!!SCT: E1225C
!!!TXL: @@DE
!!!YEM: Copyright 1995, estate of Helmut Schaffrath.
**kern	**text
*ICvox	*
*M2/4	*
*k[b-]	*
*F:	*
!LO:TX:a:t=K.	!
{8f	Frau
=1	=1
8cc	N.
8cc	N.
8cc	hat
8dd	gar
=2	=2
8cc	ſpi-
8b-	-tʒe
8a}	Schuh,
{8f	Sie
=3	=3
8cc	geht
8cc	wohl
8cc	auf
8dd	die
=4	=4
8cc	Kir-
8b-	-che
8a}	ʒu,
{16a	in
16a	die
=5	=5
8cc	Kir-
8cc	-che
8cc	geht
8dd	ſie
=6	=6
4cc	be-
8a}	-ten,
{16a	in
16a	den
=7	=7
8cc	Him-
8cc	-mel
8cc	wird
8dd	ſie
=8	=8
4cc	tre-
8a}	-ten,
{16a	in
16a	den
=9	=9
8cc	Him-
8cc	-mel
8cc	wird
8dd	ſie
=10	=10
4cc	kom-
8a}	-men,
{8a	iſts
=11	=11
8cc	Win-
8b-	-ter
8a	o-
8g	-der
=12	=12
4f	Som-
8f}	-mer.
==	==
!!!AGN: Ansinge -, Brauchtums - Lied, Kirchen - Fest, Sommer - Tags - Lied
!!!ONB: ESAC (Essen Associative Code) Database: ERK3
!!!AMT: simple duple
!!!AIN: vox
!!!EED: Helmut Schaffrath
!!!EEV: 1.0
!!!GTL: Ansingelieder an Volks- und Kirchenfesten.
!!!URL-scan: https://rosdok.uni-rostock.de/mcrviewer/recordIdentifier/rosdok_ppn745177999/iview2/phys_0140.iview2?x=-128.77276441889308&y=788.5135317059467&scale=0.5870222003877485&rotation=0&layout=singlePageLayout
!!!ENC: Anna Maria Matuszewska
!!!EEV: 2024/12/27
*-	*-
